X:280
T: Humors of Tulla
T: Tulla Reel
M: 4/4
L: 1/8
R: Reel
K: D
d2 Ad BdAB|d2 fd edBc|d2 Ad BdAd|(3Bcd ef g2 fe|
d2 Ad BdAB|d2 fd edBc|d2 Ad BdAd|(3Bcd ef g4 ||
af ~f2 df ~f2|af ~f2 ge e2|af ~f2 dfed|(3Bcd ef g2 fg|
af ~f2 df ~f2|af ~f2 ge e2|af ~f2 dfed|(3Bcd ef g4||
